icons/numix/32x32/mimetypes/application-x-php.svg

<?xml version="1.0" encoding="UTF-8" standalone="no"?>
<svg
   xmlns:dc="http://purl.org/dc/elements/1.1/"
   xmlns:cc="http://creativecommons.org/ns#"
   xmlns:rdf="http://www.w3.org/1999/02/22-rdf-syntax-ns#"
   xmlns:svg="http://www.w3.org/2000/svg"
   xmlns="http://www.w3.org/2000/svg"
   xmlns:sodipodi="http://sodipodi.sourceforge.net/DTD/sodipodi-0.dtd"
   xmlns:inkscape="http://www.inkscape.org/namespaces/inkscape"
   width="32"
   height="32"
   viewBox="0 0 32 32"
   id="svg2"
   version="1.1"
   inkscape:version="0.48.5 r10040"
   sodipodi:docname="application-x-php.svg">
  <metadata
     id="metadata24">
    <rdf:RDF>
      <cc:Work
         rdf:about="">
        <dc:format>image/svg+xml</dc:format>
        <dc:type
           rdf:resource="http://purl.org/dc/dcmitype/StillImage" />
      </cc:Work>
    </rdf:RDF>
  </metadata>
  <defs
     id="defs22" />
  <sodipodi:namedview
     pagecolor="#ffffff"
     bordercolor="#666666"
     borderopacity="1"
     objecttolerance="10"
     gridtolerance="10"
     guidetolerance="10"
     inkscape:pageopacity="0"
     inkscape:pageshadow="2"
     inkscape:window-width="1280"
     inkscape:window-height="970"
     id="namedview20"
     showgrid="true"
     inkscape:zoom="10.429825"
     inkscape:cx="0.9503661"
     inkscape:cy="18.173777"
     inkscape:window-x="0"
     inkscape:window-y="0"
     inkscape:window-maximized="1"
     inkscape:current-layer="svg2">
    <inkscape:grid
       type="xygrid"
       id="grid3012" />
  </sodipodi:namedview>
  <path
     style="fill:#5a68a4;fill-opacity:1"
     d="M 5.335888,2.978e-4 C 4.648414,3.127e-4 4,0.6767886 4,1.394032 L 4,30.606268 C 4,31.282757 4.687474,32 5.335888,32 l 21.327332,0 c 0.648414,0 1.335888,-0.717243 1.335888,-1.393732 L 28,9.0000005 l -9,-9 z"
     id="path4-1"
     inkscape:connector-curvature="0"
     sodipodi:nodetypes="ssssssccs" />
  <path
     style="fill:#000000;fill-opacity:0.19599998"
     d="M 21,9.0000005 28,16 28,9.0000005 z"
     id="path6-4"
     inkscape:connector-curvature="0"
     sodipodi:nodetypes="cccc" />
  <path
     style="fill:#ffffff;fill-opacity:0.39200003"
     d="m 19.000306,2.978e-4 8.991594,8.9997027 -7.613262,0 c -0.672951,0 -1.378332,-0.7134896 -1.378332,-1.3864402 z"
     id="path8-6"
     inkscape:connector-curvature="0"
     sodipodi:nodetypes="ccssc" />
  <path
     style="fill:#ffffff;fill-rule:evenodd"
     d="M 24,18.5 C 24,21.538095 20.417969,24 16,24 11.582031,24 8,21.538095 8,18.5 8,15.461905 11.582031,13 16,13 c 4.417969,0 8,2.461905 8,5.5 z"
     id="path10"
     inkscape:connector-curvature="0" />
  <g
     style="fill:#5a68a4"
     id="g12"
     transform="matrix(1,0,0,1.0315019,0,-0.06703384)">
    <path
       d="m 13.753906,16.023438 c 0.339844,0 0.609375,0.117187 0.808594,0.351562 0.195312,0.234375 0.296875,0.558594 0.296875,0.976562 0,0.414063 -0.08203,0.816407 -0.242187,1.199219 -0.160157,0.382813 -0.378907,0.683594 -0.65625,0.910157 -0.277344,0.222656 -0.582032,0.335937 -0.917969,0.335937 -0.195313,0 -0.359375,-0.03906 -0.5,-0.121094 -0.140625,-0.07813 -0.269531,-0.214843 -0.390625,-0.410156 l -0.02734,0 c -0.02734,0.347656 -0.07813,0.664063 -0.152344,0.960937 l -0.25,1.105469 -1.054687,0 1.199219,-5.238281 0.804687,0 -0.05859,0.550781 0.03125,0 c 0.320313,-0.414062 0.691407,-0.621093 1.109375,-0.621093 m -0.421875,0.796874 c -0.160156,0 -0.316406,0.07031 -0.464843,0.21875 -0.148438,0.144532 -0.265626,0.339844 -0.355469,0.585938 -0.08984,0.242188 -0.132813,0.511719 -0.132813,0.808594 0,0.171875 0.04297,0.3125 0.128906,0.417968 0.08594,0.101563 0.203126,0.15625 0.355469,0.15625 0.15625,0 0.308594,-0.07812 0.449219,-0.226562 0.144531,-0.148438 0.257812,-0.355469 0.34375,-0.613281 0.08984,-0.265625 0.132812,-0.523438 0.132812,-0.777344 0,-0.382813 -0.152343,-0.570313 -0.457031,-0.570313"
       id="path14"
       inkscape:connector-curvature="0" />
    <path
       d="m 17.539062,19.730469 -1.054687,0 0.480469,-2.125 c 0.03516,-0.148438 0.05469,-0.277344 0.05469,-0.386719 0,-0.265625 -0.125,-0.398438 -0.378906,-0.398438 -0.214844,0 -0.410156,0.121094 -0.585937,0.371094 -0.175782,0.246094 -0.3125,0.589844 -0.414063,1.035156 l -0.339844,1.503907 -1.058593,0 1.160156,-5.0625 1.054687,0 c -0.09375,0.390625 -0.164062,0.691406 -0.210937,0.902343 -0.05078,0.210938 -0.148438,0.546876 -0.300782,1.007813 l 0.02734,0 c 0.144532,-0.167969 0.304688,-0.300781 0.484375,-0.402344 0.175781,-0.101562 0.382813,-0.152343 0.617188,-0.152343 0.320312,0 0.570312,0.09375 0.746093,0.273437 0.175782,0.179687 0.265626,0.4375 0.265626,0.777344 0,0.15625 -0.02734,0.351562 -0.08203,0.585937 l -0.464844,2.070313"
       id="path16"
       inkscape:connector-curvature="0" />
    <path
       d="m 20.230469,16.023438 c 0.339843,0 0.609375,0.117187 0.804687,0.351562 0.199219,0.234375 0.296875,0.558594 0.296875,0.976562 0,0.414063 -0.07813,0.816407 -0.242187,1.199219 -0.15625,0.382813 -0.375,0.683594 -0.652344,0.910157 -0.28125,0.222656 -0.585938,0.335937 -0.917969,0.335937 -0.195312,0 -0.363281,-0.03906 -0.503906,-0.121094 -0.140625,-0.07813 -0.269531,-0.214843 -0.386719,-0.410156 l -0.03125,0 c -0.02734,0.347656 -0.07813,0.664063 -0.148437,0.960937 l -0.253907,1.105469 -1.054687,0 1.199219,-5.238281 0.804687,0 -0.05859,0.550781 0.03125,0 c 0.324218,-0.414062 0.695312,-0.621093 1.113281,-0.621093 m -0.425781,0.796874 c -0.160157,0 -0.3125,0.07031 -0.460938,0.21875 -0.148438,0.144532 -0.269531,0.339844 -0.359375,0.585938 -0.08984,0.242188 -0.132813,0.511719 -0.132813,0.808594 0,0.171875 0.04297,0.3125 0.128907,0.417968 0.08594,0.101563 0.207031,0.15625 0.359375,0.15625 0.15625,0 0.304687,-0.07812 0.449218,-0.226562 0.140626,-0.148438 0.253907,-0.355469 0.34375,-0.613281 0.08594,-0.265625 0.132813,-0.523438 0.132813,-0.777344 0,-0.382813 -0.15625,-0.570313 -0.460937,-0.570313"
       id="path18"
       inkscape:connector-curvature="0" />
  </g>
</svg>

<svg width="32" xmlns="http://www.w3.org/2000/svg" height="32" viewBox="0 0 32 32" xmlns:xlink="http://www.w3.org/1999/xlink">
<path style="fill:#5a68a4" d="M 5.332031 0.667969 C 4.648438 0.667969 4 1.3125 4 2 L 4 30 C 4 30.648438 4.6875 31.332031 5.332031 31.332031 L 26.667969 31.332031 C 27.3125 31.332031 28 30.648438 28 30 L 28 9.332031 L 19.332031 0.667969 Z "/>
<path style="fill:#fff;fill-opacity:.392" d="M 19.332031 0.667969 L 28 9.332031 L 20.667969 9.332031 C 20.019531 9.332031 19.332031 8.648438 19.332031 8 Z "/>
<path style="fill:#000;fill-opacity:.196" d="M 19.332031 8 L 19.375 8.042969 L 19.480469 8 Z M 20.667969 9.332031 L 28 16.667969 L 28 9.332031 Z "/>
<path style="fill:#fff;fill-rule:evenodd" d="M 24 18 C 24 20.945312 20.417969 23.332031 16 23.332031 C 11.582031 23.332031 8 20.945312 8 18 C 8 15.054688 11.582031 12.667969 16 12.667969 C 20.417969 12.667969 24 15.054688 24 18 Z "/>
<g style="fill:#5a68a4">
<path d="M 13.753906 16.023438 C 14.09375 16.023438 14.363281 16.140625 14.5625 16.375 C 14.757812 16.609375 14.859375 16.933594 14.859375 17.351562 C 14.859375 17.765625 14.777344 18.167969 14.617188 18.550781 C 14.457031 18.933594 14.238281 19.234375 13.960938 19.460938 C 13.683594 19.683594 13.378906 19.796875 13.042969 19.796875 C 12.847656 19.796875 12.683594 19.757812 12.542969 19.675781 C 12.402344 19.597656 12.273438 19.460938 12.152344 19.265625 L 12.125 19.265625 C 12.097656 19.613281 12.046875 19.929688 11.972656 20.226562 L 11.722656 21.332031 L 10.667969 21.332031 L 11.867188 16.09375 L 12.671875 16.09375 L 12.613281 16.644531 L 12.644531 16.644531 C 12.964844 16.230469 13.335938 16.023438 13.753906 16.023438 M 13.332031 16.820312 C 13.171875 16.820312 13.015625 16.890625 12.867188 17.039062 C 12.71875 17.183594 12.601562 17.378906 12.511719 17.625 C 12.421875 17.867188 12.378906 18.136719 12.378906 18.433594 C 12.378906 18.605469 12.421875 18.746094 12.507812 18.851562 C 12.59375 18.953125 12.710938 19.007812 12.863281 19.007812 C 13.019531 19.007812 13.171875 18.929688 13.3125 18.78125 C 13.457031 18.632812 13.570312 18.425781 13.65625 18.167969 C 13.746094 17.902344 13.789062 17.644531 13.789062 17.390625 C 13.789062 17.007812 13.636719 16.820312 13.332031 16.820312 "/>
<path d="M 17.539062 19.730469 L 16.484375 19.730469 L 16.964844 17.605469 C 17 17.457031 17.019531 17.328125 17.019531 17.21875 C 17.019531 16.953125 16.894531 16.820312 16.640625 16.820312 C 16.425781 16.820312 16.230469 16.941406 16.054688 17.191406 C 15.878906 17.4375 15.742188 17.78125 15.640625 18.226562 L 15.300781 19.730469 L 14.242188 19.730469 L 15.402344 14.667969 L 16.457031 14.667969 C 16.363281 15.058594 16.292969 15.359375 16.246094 15.570312 C 16.195312 15.78125 16.097656 16.117188 15.945312 16.578125 L 15.972656 16.578125 C 16.117188 16.410156 16.277344 16.277344 16.457031 16.175781 C 16.632812 16.074219 16.839844 16.023438 17.074219 16.023438 C 17.394531 16.023438 17.644531 16.117188 17.820312 16.296875 C 17.996094 16.476562 18.085938 16.734375 18.085938 17.074219 C 18.085938 17.230469 18.058594 17.425781 18.003906 17.660156 L 17.539062 19.730469 "/>
<path d="M 20.230469 16.023438 C 20.570312 16.023438 20.839844 16.140625 21.035156 16.375 C 21.234375 16.609375 21.332031 16.933594 21.332031 17.351562 C 21.332031 17.765625 21.253906 18.167969 21.089844 18.550781 C 20.933594 18.933594 20.714844 19.234375 20.4375 19.460938 C 20.15625 19.683594 19.851562 19.796875 19.519531 19.796875 C 19.324219 19.796875 19.15625 19.757812 19.015625 19.675781 C 18.875 19.597656 18.746094 19.460938 18.628906 19.265625 L 18.597656 19.265625 C 18.570312 19.613281 18.519531 19.929688 18.449219 20.226562 L 18.195312 21.332031 L 17.140625 21.332031 L 18.339844 16.09375 L 19.144531 16.09375 L 19.085938 16.644531 L 19.117188 16.644531 C 19.441406 16.230469 19.8125 16.023438 20.230469 16.023438 M 19.804688 16.820312 C 19.644531 16.820312 19.492188 16.890625 19.34375 17.039062 C 19.195312 17.183594 19.074219 17.378906 18.984375 17.625 C 18.894531 17.867188 18.851562 18.136719 18.851562 18.433594 C 18.851562 18.605469 18.894531 18.746094 18.980469 18.851562 C 19.066406 18.953125 19.1875 19.007812 19.339844 19.007812 C 19.496094 19.007812 19.644531 18.929688 19.789062 18.78125 C 19.929688 18.632812 20.042969 18.425781 20.132812 18.167969 C 20.21875 17.902344 20.265625 17.644531 20.265625 17.390625 C 20.265625 17.007812 20.109375 16.820312 19.804688 16.820312 "/>
</g>
</svg>
